X:1016
T:Albert Farmer's Bonfire Tune
R:Polka
C:Trad.
O:England, Surrey
Z:Paul Hardy's Session Tunebook 2015 (see www.paulhardy.net). Creative Commons cc by-nc-sa licenced.
M:4/4
L:1/8
Q:1/4=140
K:D
d>e|"D"f3d A2F2|"G"G2GF G4|"A7"edcA B2c2|"D"dffd A2de|f3d A2F2|"G"G2GF G4|"A7"edcA B2c2|"D"d6:|
|:de|"D"f2fd f2f2|"A7"gefd e3f|"G"gfed cABc|"D"dffd A2de|f3d A2F2|"G"G2GF G4|"A7"edcA B2c2|"D"d6:|

